X:1
T:Menuet
T:Menuet
T:François Couperin
C:François Couperin
%%score 1 2 3
L:1/8
M:3/4
K:C
V:1 bass nm="Basson" snm="Bsn."
V:2 bass nm="Basson" snm="Bsn."
V:3 bass nm="Basson" snm="Bsn."
V:1
 C2 G,2 C2 | C4 z2 | D2 G,2 D2 | D4 z2 | E2 FE DC | B,2 A,B, G,2 |1 A,2 _B,A, G,F, | %7
 E,2 D,E, C,2 :|2 A,4 B,2 | C6 || G2 C2 G2 | G6 | AG FE FD | E2 DE C2 | G2 C2 G2 | G6 | AG FE DC | %17
 D6 |: C2 G,2 C2 | C4 z2 | D2 G,2 D2 | D4 z2 | E2 FE DC | B,2 A,B, G,2 |1 A,2 _B,A, G,F, | %25
 E,2 D,E, C,2 :|2 A,4 B,2 || C6 |] %28
V:2
 E,2 F,2 G,2 | G,4 z2 | D,2 C,2 D,2 | D,4 G,2 | G,4 ^F,2 | G,6 |1 C,2 D,2 D,2 | C,6 :|2 %8
 C,2 G,F, E,D, | E,6 || E,2 F,2 G,2 | G,6 | F,2 A,2 G,2 | G,4 z2 | E,2 F,2 G,2 | G,6 | C6 | B,6 |: %18
 E,2 F,D, G,2 | G,4 z2 | G,2 D,C, G,2 | G,4 z2 | G,4 ^F,2 | G,6 |1 C,2 D,2 D,2 | C,6 :|2 %26
 C,2 G,F, E,D, || E,6 |] %28
V:3
 C,2 D,2 E,2 | E,2 F,E, D,C, | B,,2 A,,2 B,,2 | B,,2 C,B,, A,,G,, | C,2 B,,2 A,,2 | %5
 G,,2 F,,2 E,,2 |1 F,,2 D,,2 G,,2 | C,,6 :|2 F,,2 D,,2 G,,2 | C,,6 || C,2 D,2 E,2 | %11
 E,F, E,D, E,C, | F,2 D,2 G,2 | C,4 z2 | C,2 D,2 E,2 | E,F, E,D, E,C, | F,E, C,C B,G, | %17
 G,2 D,2 G,2 |: C,2 D,2 E,2 | E,2 F,E, D,C, | B,,2 A,,2 B,,2 | B,,2 C,B,, A,,G,, | C,2 B,,2 A,,2 | %23
 G,,2 F,,2 E,,2 |1 F,,2 D,,2 G,,2 | C,,6 :|2 F,,2 D,,2 G,,2 || C,,6 |] %28

